X:284
T: Kua si Yuan
N: C1781
O: China,Jiangsu Changzhou
S: III, 429]
R: Xiaodiao, Daoshilang]
M: 2/4
L: 1/16
K: F
dfdAc4 | dfdAc4 | A2AcAGF2 | cdcAG4 |
A2Acd2c2 | AAAFG4 | dddAc4 |
AA2cd2c2 | F2A2G4 |
F2FDcdcA | G4c2cA | G2C2D4 |
E2EGEDC2 | D8

@@@ Tune index: 6839
